Newaita-dark/actions/32/mail-message-new.svg

<svg height="32" viewBox="0 0 32 32" width="32" xmlns="http://www.w3.org/2000/svg"><g fill="#e0e0e0"><path d="m5.292969 5.542969c-1.464844 0-2.648438 1.179687-2.648438 2.644531v15.878906c0 1.464844 1.183594 2.644532 2.648438 2.644532h11.90625v-2.644532h-10.585938c-.730469 0-1.320312-.589844-1.320312-1.324218v-13.230469c0-.734375.589843-1.324219 1.320312-1.324219h18.523438c.734375 0 1.324219.589844 1.324219 1.324219v5.292969h2.644531v-6.617188c0-1.464844-1.179688-2.644531-2.644531-2.644531zm0 0"/><path d="m4.84375 5.882812-1.75 1.964844 11.90625 10.585938c.5.445312 1.253906.445312 1.75 0l11.910156-10.585938-1.75-1.964844-11.035156 9.804688zm0 0"/><path d="m28.445312 23.402344h-7.9375c-.367187 0-.664062-.296875-.664062-.660156v-1.324219c0-.363281.296875-.660157.664062-.660157h7.9375c.367188 0 .660157.296876.660157.660157v1.324219c0 .363281-.292969.660156-.660157.660156zm0 0"/><path d="m23.152344 26.050781v-7.941406c0-.363281.296875-.660156.664062-.660156h1.320313c.367187 0 .664062.296875.664062.660156v7.941406c0 .363281-.296875.660157-.664062.660157h-1.320313c-.367187 0-.664062-.296876-.664062-.660157zm0 0"/></g></svg>

<?xml version="1.0" encoding="UTF-8"?>
<svg xmlns="http://www.w3.org/2000/svg" xmlns:xlink="http://www.w3.org/1999/xlink" width="32px" height="32px" viewBox="0 0 32 32" version="1.1">
<g id="surface1">
<path style=" stroke:none;fill-rule:nonzero;fill:rgb(87.843138%,87.843138%,87.843138%);fill-opacity:1;" d="M 5.292969 5.542969 C 3.828125 5.542969 2.644531 6.722656 2.644531 8.1875 L 2.644531 24.066406 C 2.644531 25.53125 3.828125 26.710938 5.292969 26.710938 L 17.199219 26.710938 L 17.199219 24.066406 L 6.613281 24.066406 C 5.882812 24.066406 5.292969 23.476562 5.292969 22.742188 L 5.292969 9.511719 C 5.292969 8.777344 5.882812 8.1875 6.613281 8.1875 L 25.136719 8.1875 C 25.871094 8.1875 26.460938 8.777344 26.460938 9.511719 L 26.460938 14.804688 L 29.105469 14.804688 L 29.105469 8.1875 C 29.105469 6.722656 27.925781 5.542969 26.460938 5.542969 Z M 5.292969 5.542969 "/>
<path style=" stroke:none;fill-rule:nonzero;fill:rgb(87.843138%,87.843138%,87.843138%);fill-opacity:1;" d="M 4.84375 5.882812 L 3.09375 7.847656 L 15 18.433594 C 15.5 18.878906 16.253906 18.878906 16.75 18.433594 L 28.660156 7.847656 L 26.910156 5.882812 L 15.875 15.6875 Z M 4.84375 5.882812 "/>
<path style=" stroke:none;fill-rule:nonzero;fill:rgb(87.843138%,87.843138%,87.843138%);fill-opacity:1;" d="M 28.445312 23.402344 L 20.507812 23.402344 C 20.140625 23.402344 19.84375 23.105469 19.84375 22.742188 L 19.84375 21.417969 C 19.84375 21.054688 20.140625 20.757812 20.507812 20.757812 L 28.445312 20.757812 C 28.8125 20.757812 29.105469 21.054688 29.105469 21.417969 L 29.105469 22.742188 C 29.105469 23.105469 28.8125 23.402344 28.445312 23.402344 Z M 28.445312 23.402344 "/>
<path style=" stroke:none;fill-rule:nonzero;fill:rgb(87.843138%,87.843138%,87.843138%);fill-opacity:1;" d="M 23.152344 26.050781 L 23.152344 18.109375 C 23.152344 17.746094 23.449219 17.449219 23.816406 17.449219 L 25.136719 17.449219 C 25.503906 17.449219 25.800781 17.746094 25.800781 18.109375 L 25.800781 26.050781 C 25.800781 26.414062 25.503906 26.710938 25.136719 26.710938 L 23.816406 26.710938 C 23.449219 26.710938 23.152344 26.414062 23.152344 26.050781 Z M 23.152344 26.050781 "/>
</g>
</svg>
